X: 8482
T: Crawley Dene
R: waltz
M: 3/4
K: Gmajor
B>c|d3 e d2|g2 f3 e|e2 d2 G2|B4 AB|
D2 F2 A2|A2 e3 d|d2 c2 A2|B4 d>c|
B2 d2 B2|g4 f2|e3 f e2|a4 g2|
f2 a2 f2|d2 e2 f2|d2 e2 f2|g4 Bc||
d2 b3 a|g4 fg|a2 g3 e|d4 Bc|
d2 e3 d|d2 c2 B2|A2 G2 A2|B4 Bc|
d2 b3 a|g4 fg|B2 c2 e2|d4 d2|
B2 d2 g2|d2 f2 a2|d2 e2 f2|g4||

